Yaru++/mimetypes/48/text-x-r.svg

<svg height="48" viewBox="0 0 12.699375 12.699375" width="48" xmlns="http://www.w3.org/2000/svg" xmlns:xlink="http://www.w3.org/1999/xlink"><linearGradient id="a" gradientUnits="userSpaceOnUse" x1="344" x2="344" y1="62" y2="106"><stop offset="0" stop-color="#fff"/><stop offset=".125" stop-color="#fff" stop-opacity=".098039"/><stop offset=".92500001" stop-color="#fff" stop-opacity=".098039"/><stop offset="1" stop-color="#fff" stop-opacity=".498039"/></linearGradient><clipPath id="b"><path d="m335.73108 62c-8.82418 0-9.77365.90635-9.7304 9.74838v12.25162 12.25162c-.0433 8.84203.90622 9.74838 9.7304 9.74838h16.53919c8.82418 0 9.7304-.90625 9.7304-9.74838v-12.25162-12.25162c0-8.84213-.90622-9.74838-9.7304-9.74838z"/></clipPath><linearGradient id="c" gradientTransform="matrix(0 -.02997086 .02997 0 -3.039509 13.625372)" gradientUnits="userSpaceOnUse" x1="459.03448" x2="35.310345" y1="419.23337" y2="207.36522"><stop offset="0" stop-color="#f2f2f2"/><stop offset="1" stop-color="#f9f9f9"/></linearGradient><path d="m4.1621982.39685593c-.5881821 0-1.0513178.0135407-1.4323995.0775109-.3810845.06396887-.6929229.18395548-.9213476.41184073-.2284221.22788554-.3489841.53958344-.4123566.92082874-.0633726.3812456-.0757439.8453924-.0728601 1.4349839v3.2399529 3.241503c-.00286.5886859.00955 1.0525979.07286 1.4334339.063373.381246.1839345.692944.4123566.920829.2284247.227885.5402631.347873.9213476.411841.3810844.06397.8442174.07751 1.4323995.07751h4.3757443c.5881821 0 1.0510744-.01352 1.4313682-.07751.3802934-.064.6911794-.18439.9187604-.412357.227583-.227967.347433-.539443.411324-.920313.06389-.380868.07751-.844073.07751-1.4334339v-3.241503-3.241503c0-.5893606-.01363-1.0525644-.07751-1.4334338-.06389-.3808691-.183741-.6923442-.411324-.92031203-.227581-.22796754-.538467-.34836079-.9187604-.41235744-.3802938-.0639969-.8431861-.0775109-1.4313682-.0775109z" opacity=".1"/><path d="m4.1623596.39685593c-2.334616 0-2.5858176.23979331-2.5743749 2.57913197v3.2414149 3.2414149c-.0114559 2.3393393.2397589 2.5791323 2.5743749 2.5791323h4.3757787c2.3346167 0 2.5743757-.239767 2.5743757-2.5791323v-3.2414149-3.2414149c0-2.33936512-.239759-2.57913197-2.5743757-2.57913197z" fill="none" opacity=".2" stroke="#000" stroke-width=".529141"/><path d="m4.1623596.39685593c-2.334616 0-2.5858176.23979331-2.5743749 2.57913197v3.2414149 3.2414149c-.0114559 2.3393393.2397589 2.5791323 2.5743749 2.5791323h4.3757787c2.3346167 0 2.5743757-.239767 2.5743757-2.5791323v-3.2414149-3.2414149c0-2.33936512-.239759-2.57913197-2.5743757-2.57913197z" fill="url(#c)"/><path d="m7.2657615 6.5644053s.2284247.068931.3611305.1360791c.046049.023309.1257159.069799.1831858.1308459.056295.059793.083739.1203795.083739.1203795l.9108364 1.6462305-1.6595861.0005292-.6801679-1.2010355s-.1393254-.2393832-.2250541-.3087932c-.071516-.0578986-.1020077-.0786475-.1727142-.0785113l-.5107715.0009842v1.5874219l-1.3228515-.0009789v-4.7612867h2.3062091c.8189906 0 1.899091.2450318 1.899091 1.3653997 0 1.1203865-1.1730889 1.3627329-1.1730889 1.3627329zm-1.7094232-1.8343983v1.1903362l.8712591-.0009789s.4841452 0 .5205659-.5824356c.0380082-.6078027-.5209098-.6072709-.5209098-.6072709z" fill="#3f51b5" fill-rule="evenodd" stroke-width=".26457"/><path d="m1.5878048 6.2174028v3.241503c-.011456 2.3393382.2397774 2.5790442 2.5743934 2.5790442h4.3757443c2.3346165 0 2.5743935-.239679 2.5743935-2.5790442v-3.241503z" fill="#fff" opacity=".2"/><path d="m6.3500704.39685593v11.64109407h2.1878721c2.3346165 0 2.5743935-.239679 2.5743935-2.5790442v-3.241503-3.241503c0-2.33936512-.239777-2.57904387-2.5743935-2.57904387z" fill="#fff" opacity=".1"/><path clip-path="url(#b)" d="m335.73108 62c-8.82418 0-9.77365.90635-9.7304 9.74838v12.25162 12.25162c-.0433 8.84203.90622 9.74838 9.7304 9.74838h16.53919c8.82418 0 9.7304-.90625 9.7304-9.74838v-12.25162-12.25162c0-8.84213-.90622-9.74838-9.7304-9.74838z" fill="none" opacity=".4" stroke="url(#a)" stroke-width="2" transform="matrix(.26457031 0 0 .26457031 -84.662116 -16.006503)"/></svg>

<?xml version="1.0" encoding="UTF-8" standalone="no"?>
<svg
   xmlns:dc="http://purl.org/dc/elements/1.1/"
   xmlns:cc="http://creativecommons.org/ns#"
   xmlns:rdf="http://www.w3.org/1999/02/22-rdf-syntax-ns#"
   xmlns:svg="http://www.w3.org/2000/svg"
   xmlns="http://www.w3.org/2000/svg"
   xmlns:xlink="http://www.w3.org/1999/xlink"
   xmlns:sodipodi="http://sodipodi.sourceforge.net/DTD/sodipodi-0.dtd"
   xmlns:inkscape="http://www.inkscape.org/namespaces/inkscape"
   width="48"
   height="48"
   version="1.1"
   viewBox="0 0 12.699375 12.699375"
   id="svg43"
   sodipodi:docname="text-x-r.svg"
   inkscape:version="0.92.4 (5da689c313, 2019-01-14)">
  <metadata
     id="metadata47">
    <rdf:RDF>
      <cc:Work
         rdf:about="">
        <dc:format>image/svg+xml</dc:format>
        <dc:type
           rdf:resource="http://purl.org/dc/dcmitype/StillImage" />
        <dc:title></dc:title>
      </cc:Work>
    </rdf:RDF>
  </metadata>
  <sodipodi:namedview
     pagecolor="#ffffff"
     bordercolor="#666666"
     borderopacity="1"
     objecttolerance="10"
     gridtolerance="10"
     guidetolerance="10"
     inkscape:pageopacity="0"
     inkscape:pageshadow="2"
     inkscape:window-width="1222"
     inkscape:window-height="948"
     id="namedview45"
     showgrid="false"
     inkscape:zoom="13.854167"
     inkscape:cx="24"
     inkscape:cy="24"
     inkscape:window-x="83"
     inkscape:window-y="176"
     inkscape:window-maximized="0"
     inkscape:current-layer="svg43" />
  <defs
     id="defs17">
    <linearGradient
       id="linearGradient4226"
       x1="529.65503"
       x2="-35.310001"
       y1="401.58401"
       y2="119.093"
       gradientTransform="matrix(0,-0.11988932,0.11988589,0,0.36277975,292.5483)"
       gradientUnits="userSpaceOnUse">
      <stop
         style="stop-color:#f2f2f2"
         offset="0"
         id="stop2" />
      <stop
         style="stop-color:#f9f9f9"
         offset="1"
         id="stop4" />
    </linearGradient>
    <linearGradient
       id="linearGradient4358"
       x1="88"
       x2="488"
       y1="88"
       y2="488"
       gradientUnits="userSpaceOnUse">
      <stop
         style="stop-color:#000000;stop-opacity:.58823532"
         offset="0"
         id="stop7" />
      <stop
         style="stop-color:#000000;stop-opacity:0"
         offset=".88"
         id="stop9" />
      <stop
         style="stop-color:#000000"
         offset="1"
         id="stop11" />
    </linearGradient>
    <filter
       id="filter4346"
       width="1.026"
       height="1.022"
       x="-0.0099999998"
       y="-0.0099999998"
       style="color-interpolation-filters:sRGB">
      <feGaussianBlur
         stdDeviation="2.12"
         id="feGaussianBlur14" />
    </filter>
    <clipPath
       clipPathUnits="userSpaceOnUse"
       id="clipPath994">
      <path
         style="color:#000000;display:inline;overflow:visible;visibility:visible;fill:#cdcdcd;fill-opacity:1;fill-rule:nonzero;stroke:none;stroke-width:2;stroke-miterlimit:4;stroke-dasharray:none;stroke-opacity:1;marker:none;enable-background:accumulate"
         d="m 335.73108,62 c -8.82418,0 -9.77365,0.90635 -9.7304,9.74838 V 84 96.25162 c -0.0433,8.84203 0.90622,9.74838 9.7304,9.74838 h 16.53919 c 8.82418,0 9.7304,-0.90625 9.7304,-9.74838 V 84 71.74838 C 362.00067,62.90625 361.09445,62 352.27027,62 Z"
         id="path996"
         inkscape:connector-curvature="0"
         sodipodi:nodetypes="scccssscsss" />
    </clipPath>
    <clipPath
       clipPathUnits="userSpaceOnUse"
       id="clipPath994-3">
      <path
         style="color:#000000;display:inline;overflow:visible;visibility:visible;fill:#cdcdcd;fill-opacity:1;fill-rule:nonzero;stroke:none;stroke-width:2;stroke-miterlimit:4;stroke-dasharray:none;stroke-opacity:1;marker:none;enable-background:accumulate"
         d="m 335.73108,62 c -8.82418,0 -9.77365,0.90635 -9.7304,9.74838 V 84 96.25162 c -0.0433,8.84203 0.90622,9.74838 9.7304,9.74838 h 16.53919 c 8.82418,0 9.7304,-0.90625 9.7304,-9.74838 V 84 71.74838 C 362.00067,62.90625 361.09445,62 352.27027,62 Z"
         id="path996-6"
         inkscape:connector-curvature="0"
         sodipodi:nodetypes="scccssscsss" />
    </clipPath>
    <linearGradient
       inkscape:collect="always"
       xlink:href="#linearGradient927"
       id="linearGradient1004"
       x1="344"
       y1="62"
       x2="344"
       y2="106"
       gradientUnits="userSpaceOnUse" />
    <linearGradient
       inkscape:collect="always"
       id="linearGradient927">
      <stop
         style="stop-color:#ffffff;stop-opacity:1;"
         offset="0"
         id="stop923" />
      <stop
         id="stop933"
         offset="0.125"
         style="stop-color:#ffffff;stop-opacity:0.09803922" />
      <stop
         id="stop931"
         offset="0.92500001"
         style="stop-color:#ffffff;stop-opacity:0.09803922" />
      <stop
         style="stop-color:#ffffff;stop-opacity:0.49803922"
         offset="1"
         id="stop925" />
    </linearGradient>
    <clipPath
       clipPathUnits="userSpaceOnUse"
       id="clipPath994-7">
      <path
         style="color:#000000;display:inline;overflow:visible;visibility:visible;fill:#cdcdcd;fill-opacity:1;fill-rule:nonzero;stroke:none;stroke-width:2;stroke-miterlimit:4;stroke-dasharray:none;stroke-opacity:1;marker:none;enable-background:accumulate"
         d="m 335.73108,62 c -8.82418,0 -9.77365,0.90635 -9.7304,9.74838 V 84 96.25162 c -0.0433,8.84203 0.90622,9.74838 9.7304,9.74838 h 16.53919 c 8.82418,0 9.7304,-0.90625 9.7304,-9.74838 V 84 71.74838 C 362.00067,62.90625 361.09445,62 352.27027,62 Z"
         id="path996-5"
         inkscape:connector-curvature="0"
         sodipodi:nodetypes="scccssscsss" />
    </clipPath>
    <linearGradient
       inkscape:collect="always"
       xlink:href="#linearGradient4338"
       id="linearGradient1024"
       gradientUnits="userSpaceOnUse"
       gradientTransform="matrix(0,-0.02997086,0.02997,0,-3.0395088,13.625372)"
       x1="459.03448"
       y1="419.23337"
       x2="35.310345"
       y2="207.36522" />
    <linearGradient
       inkscape:collect="always"
       id="linearGradient4338">
      <stop
         style="stop-color:#f2f2f2;stop-opacity:1"
         offset="0"
         id="stop4340" />
      <stop
         style="stop-color:#f9f9f9;stop-opacity:1"
         offset="1"
         id="stop4342" />
    </linearGradient>
  </defs>
  <path
     style="color:#000000;font-style:normal;font-variant:normal;font-weight:normal;font-stretch:normal;font-size:medium;line-height:normal;font-family:sans-serif;font-variant-ligatures:normal;font-variant-position:normal;font-variant-caps:normal;font-variant-numeric:normal;font-variant-alternates:normal;font-feature-settings:normal;text-indent:0;text-align:start;text-decoration:none;text-decoration-line:none;text-decoration-style:solid;text-decoration-color:#000000;letter-spacing:normal;word-spacing:normal;text-transform:none;writing-mode:lr-tb;direction:ltr;text-orientation:mixed;dominant-baseline:auto;baseline-shift:baseline;text-anchor:start;white-space:normal;shape-padding:0;clip-rule:nonzero;display:inline;overflow:visible;visibility:visible;opacity:0.1;isolation:auto;mix-blend-mode:normal;color-interpolation:sRGB;color-interpolation-filters:linearRGB;solid-color:#000000;solid-opacity:1;vector-effect:none;fill:#000000;fill-opacity:1;fill-rule:nonzero;stroke:none;stroke-width:0.52914065;stroke-linecap:butt;stroke-linejoin:miter;stroke-miterlimit:4;stroke-dasharray:none;stroke-dashoffset:0;stroke-opacity:1;marker:none;color-rendering:auto;image-rendering:auto;shape-rendering:auto;text-rendering:auto;enable-background:accumulate"
     d="m 4.1621982,0.39685593 c -0.5881821,0 -1.0513178,0.0135407 -1.4323995,0.0775109 C 2.3487142,0.5383357 2.0368758,0.65832231 1.8084511,0.88620756 1.580029,1.1140931 1.459467,1.425791 1.3960945,1.8070363 1.3327219,2.1882819 1.3203506,2.6524287 1.3232344,3.2420202 v 3.2399529 3.241503 c -0.00286,0.5886859 0.00955,1.0525979 0.07286,1.4334339 0.063373,0.381246 0.1839345,0.692944 0.4123566,0.920829 0.2284247,0.227885 0.5402631,0.347873 0.9213476,0.411841 0.3810844,0.06397 0.8442174,0.07751 1.4323995,0.07751 h 4.3757443 c 0.5881821,0 1.0510744,-0.01352 1.4313682,-0.07751 0.3802934,-0.064 0.6911794,-0.18439 0.9187604,-0.412357 0.227583,-0.227967 0.347433,-0.539443 0.411324,-0.920313 0.06389,-0.380868 0.07751,-0.844073 0.07751,-1.4334339 v -3.241503 -3.241503 c 0,-0.5893606 -0.01363,-1.0525644 -0.07751,-1.4334338 C 11.235505,1.4261672 11.115654,1.1146921 10.888071,0.88672427 10.66049,0.65875673 10.349604,0.53836348 9.9693106,0.47436683 9.5890168,0.41036993 9.1261245,0.39685593 8.5379424,0.39685593 Z"
     id="path1020"
     inkscape:connector-curvature="0"
     sodipodi:nodetypes="sccsccccccsscccscsccsss" />
  <path
     style="color:#000000;display:inline;overflow:visible;visibility:visible;opacity:0.2;fill:none;fill-opacity:1;fill-rule:nonzero;stroke:#000000;stroke-width:0.52914065;stroke-miterlimit:4;stroke-dasharray:none;stroke-opacity:1;marker:none;enable-background:accumulate"
     d="m 4.1623596,0.39685593 c -2.334616,0 -2.5858176,0.23979331 -2.5743749,2.57913197 V 6.2174028 9.4588177 C 1.5765288,11.798157 1.8277436,12.03795 4.1623596,12.03795 h 4.3757787 c 2.3346167,0 2.5743757,-0.239767 2.5743757,-2.5791323 V 6.2174028 2.9759879 c 0,-2.33936512 -0.239759,-2.57913197 -2.5743757,-2.57913197 z"
     id="path958"
     inkscape:connector-curvature="0"
     sodipodi:nodetypes="scccssscsss" />
  <path
     style="color:#000000;display:inline;overflow:visible;visibility:visible;fill:url(#linearGradient1024);fill-opacity:1;fill-rule:nonzero;stroke:none;stroke-width:0.26457033;marker:none;enable-background:accumulate"
     d="m 4.1623596,0.39685593 c -2.334616,0 -2.5858176,0.23979331 -2.5743749,2.57913197 V 6.2174028 9.4588177 C 1.5765288,11.798157 1.8277436,12.03795 4.1623596,12.03795 h 4.3757787 c 2.3346167,0 2.5743757,-0.239767 2.5743757,-2.5791323 V 6.2174028 2.9759879 c 0,-2.33936512 -0.239759,-2.57913197 -2.5743757,-2.57913197 z"
     id="path964"
     inkscape:connector-curvature="0"
     sodipodi:nodetypes="scccssscsss" />
  <path
     id="path938"
     d="m 7.2657615,6.5644053 c 0,0 0.2284247,0.068931 0.3611305,0.1360791 0.046049,0.023309 0.1257159,0.069799 0.1831858,0.1308459 0.056295,0.059793 0.083739,0.1203795 0.083739,0.1203795 L 8.8046532,8.5979403 7.1450671,8.5984695 6.4648992,7.397434 c 0,0 -0.1393254,-0.2393832 -0.2250541,-0.3087932 C 6.1683291,7.0307422 6.1378374,7.0099933 6.0671309,7.0101295 L 5.5563594,7.0111137 V 8.5985356 L 4.2335079,8.5975567 V 3.83627 H 6.539717 c 0.8189906,0 1.899091,0.2450318 1.899091,1.3653997 0,1.1203865 -1.1730889,1.3627329 -1.1730889,1.3627329 z M 5.5563383,4.730007 v 1.1903362 l 0.8712591,-9.789e-4 c 0,0 0.4841452,0 0.5205659,-0.5824356 C 6.9861715,4.729126 6.4272535,4.7296578 6.4272535,4.7296578 Z"
     inkscape:connector-curvature="0"
     style="display:inline;fill:#3f51b5;fill-rule:evenodd;stroke-width:0.26457033;enable-background:new"
     sodipodi:nodetypes="csccccccscccccscccccscc" />
  <path
     style="color:#000000;display:inline;overflow:visible;visibility:visible;opacity:0.2;fill:#ffffff;fill-opacity:1;fill-rule:nonzero;stroke:none;stroke-width:0.26457033;marker:none;enable-background:accumulate"
     d="m 1.5878048,6.2174028 v 3.241503 C 1.5763488,11.798244 1.8275822,12.03795 4.1621982,12.03795 h 4.3757443 c 2.3346165,0 2.5743935,-0.239679 2.5743935,-2.5790442 v -3.241503 z"
     id="path1006"
     inkscape:connector-curvature="0" />
  <path
     style="color:#000000;display:inline;overflow:visible;visibility:visible;opacity:0.1;fill:#ffffff;fill-opacity:1;fill-rule:nonzero;stroke:none;stroke-width:0.26457033;marker:none;enable-background:accumulate"
     d="M 6.3500704,0.39685593 V 12.03795 h 2.1878721 c 2.3346165,0 2.5743935,-0.239679 2.5743935,-2.5790442 v -3.241503 -3.241503 c 0,-2.33936512 -0.239777,-2.57904387 -2.5743935,-2.57904387 z"
     id="path1013"
     inkscape:connector-curvature="0" />
  <path
     transform="matrix(0.26457031,0,0,0.26457031,-84.662116,-16.006503)"
     sodipodi:nodetypes="scccssscsss"
     inkscape:connector-curvature="0"
     id="path990"
     d="m 335.73108,62 c -8.82418,0 -9.77365,0.90635 -9.7304,9.74838 V 84 96.25162 c -0.0433,8.84203 0.90622,9.74838 9.7304,9.74838 h 16.53919 c 8.82418,0 9.7304,-0.90625 9.7304,-9.74838 V 84 71.74838 C 362.00067,62.90625 361.09445,62 352.27027,62 Z"
     style="color:#000000;display:inline;overflow:visible;visibility:visible;opacity:0.4;fill:none;fill-opacity:1;fill-rule:nonzero;stroke:url(#linearGradient1004);stroke-width:2;stroke-miterlimit:4;stroke-dasharray:none;stroke-opacity:1;marker:none;enable-background:accumulate"
     clip-path="url(#clipPath994-7)" />
</svg>
